X:512
T: Eierliddchen (218), S. 470
N: T0400
O: Luxemburg
S: Singendes Volk, Esch-Alzette, 1937 posth.]
R: Ansingelied fr Volks- und Festtage, Kinderlied
M: 2/4
L: 1/8
K: G
B | BBBB | B2z
B | BBBB | B2z
B | BABc | e2c
c | B2AA | G2z

@@@ Tune index: 8566
